小程序/已取消.svg

<svg width="16" height="16">
  <path fill="#000" fill-rule="evenodd" d="M7.82061687.125c1.08464084 0 2.10009293.20198366 3.04638673.60595703.9462938.40397338 1.7708298.96012016 2.4736328 1.66845703.702803.70833688 1.2561829 1.5356398 1.6601563 2.4819336.4039733.94629379.605957 1.95621208.605957 3.02978515 0 1.08464084-.2019837 2.10009289-.605957 3.04638669-.4039734.9462938-.9573533 1.7708299-1.6601563 2.4736328-.702803.702803-1.527339 1.2589498-2.4736328 1.6684571-.9462938.4095072-1.96174589.6142578-3.04638673.6142578s-2.10009292-.2047506-3.04638672-.6142578c-.94629379-.4095073-1.77082982-.9656541-2.47363281-1.6684571-.70280299-.7028029-1.25618288-1.527339-1.66015625-2.4736328-.40397338-.9462938-.60595703-1.96174585-.60595703-3.04638669 0-1.07357307.20198365-2.08349136.60595703-3.02978515.40397337-.9462938.95735326-1.77359672 1.66015625-2.4819336.70280299-.70833687 1.52733902-1.26448365 2.47363281-1.66845703C5.72052395.32698366 6.73597603.125 7.82061687.125zm0 14.1611328c.88542109 0 1.71549093-.166014 2.49023433-.4980469.7747435-.3320329 1.449867-.7858044 2.0253907-1.3613281s1.0292952-1.2506472 1.3613281-2.0253906c.3320329-.7747435.4980469-1.60481329.4980469-2.49023439 0-.88542109-.166014-1.71549092-.4980469-2.49023437-.3320329-.77474346-.7858044-1.44986692-1.3613281-2.02539063-.5755237-.57552371-1.2506472-1.02929521-2.0253907-1.36132812-.7747434-.33203291-1.60481324-.49804688-2.49023433-.49804688-.88542109 0-1.71549092.16601397-2.49023437.49804688-.77474346.33203291-1.44986692.78580441-2.02539063 1.36132812-.57552371.57552371-1.02929521 1.25064717-1.36132812 2.02539063-.33203292.77474345-.49804688 1.60481328-.49804688 2.49023437 0 .8854211.16601396 1.71549089.49804688 2.49023439.33203291.7747434.78580441 1.4498669 1.36132812 2.0253906.57552371.5755237 1.25064717 1.0292952 2.02539063 1.3613281.77474345.3320329 1.60481328.4980469 2.49023437.4980469zm2.62304683-8.99804686c.143881.14388093.2158204.30989489.2158204.49804687s-.0719394.35416595-.2158204.49804688L8.81671062 7.91113281 10.4436637 9.5380859c.143881.143881.2158204.3098949.2158204.4980469 0 .188152-.0719394.354166-.2158204.4980469-.0774743.0774743-.1632482.1328123-.2573242.1660156-.094076.0332033-.174316.0498047-.2407226.0498047-.0664066 0-.1466467-.0166014-.2407227-.0498047-.094076-.0332033-.1798499-.0885413-.2573242-.1660156L7.82061687 8.90722656 6.19366375 10.5341797c-.07747435.0774743-.15218063.1328123-.2241211.1660156-.07194046.0332033-.16324814.0498047-.27392578.0498047s-.20198532-.0166014-.27392578-.0498047c-.07194047-.0332033-.14664675-.0885413-.22412109-.1660156-.14388093-.1438809-.21582032-.3098949-.21582032-.4980469 0-.188152.07193939-.3541659.21582032-.4980469l1.62695312-1.62695309L5.19757 6.28417969c-.14388093-.14388093-.21582032-.3098949-.21582032-.49804688 0-.18815198.07193939-.35416594.21582032-.49804687.14388092-.13281317.30989489-.19921875.49804687-.19921875s.35416595.06640558.49804688.19921875l1.62695312 1.64355468L9.44757 5.28808594c.1438809-.13281317.3098949-.19921875.4980469-.19921875.188152 0 .3541659.06640558.4980468.19921875z"/>
</svg>

<?xml version="1.0" encoding="UTF-8"?>
<svg width="16px" height="16px" viewBox="0 0 16 16" version="1.1" xmlns="http://www.w3.org/2000/svg" xmlns:xlink="http://www.w3.org/1999/xlink">
    <!-- Generator: Sketch 50 (54983) - http://www.bohemiancoding.com/sketch -->
    <title>已取消</title>
    <desc>Created with Sketch.</desc>
    <defs></defs>
    <g id="Page-1" stroke="none" stroke-width="1" fill="none" fill-rule="evenodd">
        <g id="已取消" fill="#000000">
            <path d="M7.82061687,0.125 C8.90525771,0.125 9.9207098,0.32698366 10.8670036,0.73095703 C11.8132974,1.13493041 12.6378334,1.69107719 13.3406364,2.39941406 C14.0434394,3.10775094 14.5968193,3.93505386 15.0007927,4.88134766 C15.404766,5.82764145 15.6067497,6.83755974 15.6067497,7.91113281 C15.6067497,8.99577365 15.404766,10.0112257 15.0007927,10.9575195 C14.5968193,11.9038133 14.0434394,12.7283494 13.3406364,13.4311523 C12.6378334,14.1339553 11.8132974,14.6901021 10.8670036,15.0996094 C9.9207098,15.5091166 8.90525771,15.7138672 7.82061687,15.7138672 C6.73597603,15.7138672 5.72052395,15.5091166 4.77423015,15.0996094 C3.82793636,14.6901021 3.00340033,14.1339553 2.30059734,13.4311523 C1.59779435,12.7283494 1.04441446,11.9038133 0.64044109,10.9575195 C0.23646771,10.0112257 0.03448406,8.99577365 0.03448406,7.91113281 C0.03448406,6.83755974 0.23646771,5.82764145 0.64044109,4.88134766 C1.04441446,3.93505386 1.59779435,3.10775094 2.30059734,2.39941406 C3.00340033,1.69107719 3.82793636,1.13493041 4.77423015,0.73095703 C5.72052395,0.32698366 6.73597603,0.125 7.82061687,0.125 Z M7.82061687,14.2861328 C8.70603796,14.2861328 9.5361078,14.1201188 10.3108512,13.7880859 C11.0855947,13.456053 11.7607182,13.0022815 12.3362419,12.4267578 C12.9117656,11.8512341 13.3655371,11.1761106 13.69757,10.4013672 C14.0296029,9.6266237 14.1956169,8.79655391 14.1956169,7.91113281 C14.1956169,7.02571172 14.0296029,6.19564189 13.69757,5.42089844 C13.3655371,4.64615498 12.9117656,3.97103152 12.3362419,3.39550781 C11.7607182,2.8199841 11.0855947,2.3662126 10.3108512,2.03417969 C9.5361078,1.70214678 8.70603796,1.53613281 7.82061687,1.53613281 C6.93519578,1.53613281 6.10512595,1.70214678 5.3303825,2.03417969 C4.55563904,2.3662126 3.88051558,2.8199841 3.30499187,3.39550781 C2.72946816,3.97103152 2.27569666,4.64615498 1.94366375,5.42089844 C1.61163083,6.19564189 1.44561687,7.02571172 1.44561687,7.91113281 C1.44561687,8.79655391 1.61163083,9.6266237 1.94366375,10.4013672 C2.27569666,11.1761106 2.72946816,11.8512341 3.30499187,12.4267578 C3.88051558,13.0022815 4.55563904,13.456053 5.3303825,13.7880859 C6.10512595,14.1201188 6.93519578,14.2861328 7.82061687,14.2861328 Z M10.4436637,5.28808594 C10.5875447,5.43196687 10.6594841,5.59798083 10.6594841,5.78613281 C10.6594841,5.97428479 10.5875447,6.14029876 10.4436637,6.28417969 L8.81671062,7.91113281 L10.4436637,9.5380859 C10.5875447,9.6819669 10.6594841,9.8479808 10.6594841,10.0361328 C10.6594841,10.2242848 10.5875447,10.3902988 10.4436637,10.5341797 C10.3661894,10.611654 10.2804155,10.666992 10.1863395,10.7001953 C10.0922635,10.7333986 10.0120235,10.75 9.9456169,10.75 C9.8792103,10.75 9.7989702,10.7333986 9.7048942,10.7001953 C9.6108182,10.666992 9.5250443,10.611654 9.44757,10.5341797 L7.82061687,8.90722656 L6.19366375,10.5341797 C6.1161894,10.611654 6.04148312,10.666992 5.96954265,10.7001953 C5.89760219,10.7333986 5.80629451,10.75 5.69561687,10.75 C5.58493923,10.75 5.49363155,10.7333986 5.42169109,10.7001953 C5.34975062,10.666992 5.27504434,10.611654 5.19757,10.5341797 C5.05368907,10.3902988 4.98174968,10.2242848 4.98174968,10.0361328 C4.98174968,9.8479808 5.05368907,9.6819669 5.19757,9.5380859 L6.82452312,7.91113281 L5.19757,6.28417969 C5.05368907,6.14029876 4.98174968,5.97428479 4.98174968,5.78613281 C4.98174968,5.59798083 5.05368907,5.43196687 5.19757,5.28808594 C5.34145092,5.15527277 5.50746489,5.08886719 5.69561687,5.08886719 C5.88376885,5.08886719 6.04978282,5.15527277 6.19366375,5.28808594 L7.82061687,6.93164062 L9.44757,5.28808594 C9.5914509,5.15527277 9.7574649,5.08886719 9.9456169,5.08886719 C10.1337689,5.08886719 10.2997828,5.15527277 10.4436637,5.28808594 Z" id="Shape"></path>
        </g>
    </g>
</svg>
